X: 387
T:Mazurkas No. 3.	 Op. 63
C: Fryderyk Chopin
%%abc-version 2.0
%%abcx-abcm2ps-target-version 5.9.1 (29 Sep 2008)
%%abc-creator hum2abc beta
%%abcx-conversion-date 2021/10/03 11:23:54
%%abc-edited-by Andrzej Kubiczek
%%abcx-initial-encoding-date 2021-01-08
%%humdrum-veritas 76378467
%%humdrum-veritas-data 4159238571
%%linebreak <none>
%%barnumbers 0
L: 1/4
M: 3/4
N: Derived from 063-1-BR-003.krn
P: 3 MAZURKAS POUR PIANO dédiées à Madame la Comtesse Laure Czosnowska
Q: "Allegretto."
%%staves {1 2}
V: 1 clef=treble
V: 2 clef=bass
K: E
[V:1] E/A/ [I:setbarnb 1]| 
[V:2] z | 
[V:1] Gc3/d/ | 
[V:2] C,[ECG,][ECG,] | 
[V:1] c/^B/dz | 
[V:2] D,[F^B,G,][FB,G,] | 
[V:1] zd3/e/ | 
[V:2] ^B,,[FDG,][FDG,] | 
[V:1] d/c/ez | 
[V:2] C,[ECG,][ECG,] | 
[V:1] zg3/a/ | 
[V:2] E,[GCG,][GCG,] | 
[V:1] g/^^f<de/ | 
[V:2] D,[^^FC^A,][FCA,] | 
[V:1] fg3/f/ | 
[V:2] G,,[^F^B,G,][FB,G,] | 
[V:1] e/d/cB/A/ | 
[V:2] C,[ECG,][EC^^F,] | 
[V:1] Gc3/d/ | 
[V:2] C,[ECG,][ECG,] | 
[V:1] c/^B/dz | 
[V:2] D,[F^B,G,][FB,G,] | 
[V:1] zd3/e/ | 
[V:2] ^B,,[FDG,][FDG,] | 
[V:1] d/c/e2 | 
[V:2] C,[EG,][E^A,F,] | 
[V:1] .Bb3/c'/ | 
[V:2] B,,[EB,F,][EB,F,] | 
[V:1] b/^a<fg/ | 
[V:2] B,,[ECF,][ECF,] | 
[V:1] ab3/a/ | 
[V:2] B,,,[DB,F,][DB,F,] | 
[V:1] g/d/!mordent!e/d/e/f/ | 
[V:2] E,,[EB,G,]z | 
[V:1] g-g/d/g/f/ | 
[V:2] ^B,,[FDG,]z | 
[V:1] .e^B/d/c/=B/ | 
[V:2] C,[ECG,]z | 
[V:1] .A/z//.A//.A!accent!A | 
[V:2] C,,[EC^^F,][ECF,] | 
[V:1] G/c/d/e/g/c'/ | 
[V:2] C,[ECG,]z | 
[V:1] g-g/d/g/f/ | 
[V:2] ^B,,[DG,]z | 
[V:1] .e^B/d/c/^A/ | 
[V:2] C,,[EG,][E^A,G,] | 
[V:1] D/E/!mordent!D/^^C/D/B/ | 
[V:2] D,,[B,D,][C^^F,D,] | 
[V:1] G/G,/!accent!G2 | 
[V:2] G,,B,x & x^C,/E,/^D,/B,,/ | 
[V:1] g-g/d/g/f/ | 
[V:2] .G,,[F^B,D,]z | 
[V:1] e^B/d/c/=B/ | 
[V:2] C,[ECG,]z | 
[V:1] A/z//.A//.A!accent!A | 
[V:2] C,,[E^^F,][EF,] | 
[V:1] G/c/d/e/g/c'/ | 
[V:2] C,[EG,]C, | 
[V:1] g-g/d/g/=g/ | 
[V:2] ^B,,[DG,D,]=B,, | 
[V:1] f/e/^B/d/c/^^F/ | 
[V:2] ^A,,[CE,]=A,, | 
[V:1] G/A/G/^^F/G/e/ | 
[V:2] G,,[EG,][F^B,G,] | 
[V:1] c/C/c2 & x/C2x/ | 
[V:2] C,[EG,]B,/A,/ | 
[V:1]  [K:Db] E/>E/[EC][FD] & Dxx | 
[V:2]  [K:Db] x2A, & A,/=G,/_G,[A,F,] | 
[V:1] C/A/GF & C2D | 
[V:2] [A,2E,2]x & xA,,[A,-D,] | 
[V:1] E/>E/E[FC] & B,2x | 
[V:2] A,G,2 & G,,2A,, | 
[V:1] !mordent![E/G,/]>=D/[EA,-][_D-F,] | 
[V:2] B,,C,D, | 
[V:1] E/>E/EF & [DA,E,A,,A,,,]CD | 
[V:2] x[A,G,][A,F,] | 
[V:1] A/B/GF & C2D | 
[V:2] [A,2E,2]A, & xA,,D, | 
[V:1] E/>d/E[FC] & B,2x | 
[V:2] A,G,F, & G,,2A,, | 
[V:1] !mordent![E/G,/]>=D/[EA,][_DF,] | 
[V:2] B,,C,D, | 
[V:1] A/z//A//[AF][BG] | 
[V:2] D,,[E_C][DB,] | 
[V:1] d/>_c/[cF][BG] & x[EA,][DB,] | 
[V:2] D,3 | 
[V:1] A/>e/[AF][BG] & G[E_C][DB,] | 
[V:2] D,3- | 
[V:1] !mordent!A/>=G/[AD_C][_GB,] & Ex2 | 
[V:2] [_CG,D,][F,D,][G,G,,] | 
[V:1] z/ z// A//[AF][BG] | 
[V:2] D,,[E_C][DB,] | 
[V:1] d/>_c/[cF][BG-] | 
[V:2] z[DA,]x & D,2G, | 
[V:1] e/>d/d_c & G=GA | 
[V:2] z[EB,]x & E,2A, | 
[V:1] =e/>=d/d2 & ^GGG | 
[V:2] x[=E=B,][EB,] & =E,3 | 
[V:1]  [K:E] =d^c3/^d/ & =Gx2 | 
[V:2]  [K:E] A,,[GEA,][G^DA,] | 
[V:1] c/>^B/d=B/A/ | 
[V:2] G,,[FDG,][FCG,] | 
[V:1] Gd3/e/ | 
[V:2] z[F^B,G,][FB,G,] | 
[V:1] d/>c/eB/A/ | 
[V:2] C,[ECG,]z | 
[V:1] Gg3/a/ | 
[V:2] E,,[CG,C,][CG,C,] | 
[V:1] g/^^f<de/ | 
[V:2] D,,[CD,][C^^F,D,] | 
[V:1] fg3/f/ | 
[V:2] G,,[^B,G,D,][FB,G,] | 
[V:1] e/d/cB/A/ | 
[V:2] C,,[ECG,][EC^^F,] | 
[V:1] Gc3/d/ | 
[V:2] C,[ECG,][ECG,] | 
[V:1] c/^B/d=B/A/ | 
[V:2] D,[F^B,G,][FB,G,] | 
[V:1] Gd3/e/ | 
[V:2] ^B,,[FDG,][FDG,] | 
[V:1] d/>c/^e2 | 
[V:2] B,,[GCG,][CG,] | 
[V:1] d/c/fd/c/ | 
[V:2] ^A,,[FCF,]=A,, | 
[V:1] ^^fd/c/ c'/ !fermata!z/ | 
[V:2] [FC=A,E,]z!fermata!z | 
[V:1] G/A/G/^^F/G/e/ | 
[V:2] G,,[ECG,][^B,G,F,] | 
[V:1] c/C/c2 | 
[V:2] C,,[EG,][EG,] | 
[V:1] zg3/a/ | 
[V:2] E,[GCG,][GCG,] | 
[V:1] g/^^f/d2 & xG/^^F/D | 
[V:2] D,[C^A,][CA,] | 
[V:1] fg3/f/ & zFG | 
[V:2] G,,[^B,G,D,][B,G,D,] | 
[V:1] e/d/cB/A/ & F/ F/ E/D/C | 
[V:2] C,G,[E^^F,] | 
[V:1] Gc3/d/ & B,/A,/G,C | 
[V:2] C,,E[EG,] | 
[V:1] c/^B/d=B/A/ & D/ D/ C/^B,/D | 
[V:2] D,[FG,][FG,] | 
[V:1] Gd3/e/ & =B,/A,/G,x | 
[V:2] ^B,,[FG,][FG,] | 
[V:1] xd'/c'/^e' & d/c/^e2 | 
[V:2] =B,,[GCG,]z | 
[V:1] xd'/c'/f' & d/c/fd/c/ | 
[V:2] [^A,,^A,,,][FCF,][=A,,=A,,,] | 
[V:1] d'/c'/^^f'x & ^^fd/c/ .c''/ !fermata!z/ | 
[V:2] [^^FCA,]zz | 
[V:1] G,/A,/!mordent!G,/^^F,/G,/E/ | 
[V:2] .[G,,G,,,][CE,][^B,^F,] | 
[V:1] C/>C,/C2 |]  
[V:2] C,,[K:clef=treble][cE]z |]
